X:64
T:Soldiers Adieu,The. RHu.065
T:Deadly Wars,The,aka. RHu.065
S:R.Hughes MS,1823,Whitchurch,Shrops.
A:Whitchurch, Shropshire
Z:Neil Brookes 2006
M:4/4
L:1/8
Q:1/2=70
R:Air
K:D
de|f2A2A2dc|BA B{c}de2 de|f2 a2 gfed|B3cd2 de|!
f2A2A2dc|BA B{c}de2 de|f2 a2 gfed|B3cd2::!
A|d>efg a2f2|bagf e2A2|defg agfe|f4a2A2|!
defg a2f2|bagf e2 de|f2a2 gfed|B3cd2:|

